arkscan/icons/probit.svg

<svg viewBox="0 0 18 20" fill="none" xmlns="http://www.w3.org/2000/svg">
  <path
    d="M8.67775 20L0 15.0033V4.99666L8.67775 0L17.3555 4.99666V15.0033L8.67775 20ZM8.65117 3.13619C8.50499 3.13619 8.35881 3.16278 8.23921 3.24251L3.46844 6.13953C3.21595 6.32557 3.05648 6.63124 3.04319 6.95017V12.186C3.04319 12.3455 3.04319 12.6246 3.29568 12.784C3.60133 12.9568 3.92027 13.103 4.2525 13.2359L4.33223 13.2757C4.45183 13.3289 4.57143 13.3688 4.70432 13.3821C4.77077 13.3821 4.83721 13.3555 4.89037 13.3023C4.94352 13.2226 4.9701 13.1163 4.9701 13.01V7.62789L8.23921 9.54153C8.4917 9.67442 8.81064 9.67442 9.06313 9.54153L13.8339 6.64452C13.9668 6.59136 14.0465 6.43188 13.9934 6.29899C13.9668 6.23254 13.9136 6.1794 13.8339 6.13953L9.06313 3.24251C8.94353 3.17607 8.79735 3.13619 8.65117 3.13619ZM8.53157 7.62789C8.41197 7.62789 8.30566 7.60134 8.19934 7.54818L6.52492 6.59134C6.41861 6.55148 6.36545 6.44518 6.39203 6.33886C6.41861 6.27242 6.45847 6.23255 6.52492 6.20597L8.19934 5.24917C8.41197 5.14286 8.65117 5.14286 8.8638 5.24917L10.5382 6.20597C10.6445 6.24584 10.6977 6.35214 10.6711 6.45845C10.6445 6.5249 10.6047 6.56476 10.5382 6.59134L8.8638 7.54818C8.77077 7.60134 8.65117 7.62789 8.53157 7.62789Z"
    fill="#3F32C0" />
</svg>

<svg viewBox="0 0 18 20" fill="none" xmlns="http://www.w3.org/2000/svg"><path d="M8.678 20 0 15.003V4.997L8.678 0l8.677 4.997v10.006L8.678 20ZM8.65 3.136a.735.735 0 0 0-.412.107L3.47 6.14a1.072 1.072 0 0 0-.426.81v5.236c0 .16 0 .439.253.598.305.173.624.319.957.452l.08.04c.119.053.238.093.371.106a.262.262 0 0 0 .186-.08.536.536 0 0 0 .08-.292V7.628l3.27 1.914a.901.901 0 0 0 .823 0l4.77-2.897c.134-.054.213-.213.16-.346a.31.31 0 0 0-.16-.16l-4.77-2.896a.863.863 0 0 0-.412-.107Zm-.12 4.492a.72.72 0 0 1-.332-.08l-1.674-.957a.21.21 0 0 1-.133-.252.22.22 0 0 1 .133-.133l1.674-.957a.732.732 0 0 1 .665 0l1.674.957a.21.21 0 0 1 .133.252.22.22 0 0 1-.133.133l-1.674.957a.682.682 0 0 1-.332.08Z" fill="#3F32C0"/></svg>
